digitransit-component/packages/digitransit-component-icon/src/assets/citybike-stop-digitransit-secondary.svg

<svg width="24" height="24" viewBox="0 0 32 32" xmlns="http://www.w3.org/2000/svg">
    <rect x="14.5" y="22" width="3" height="8" rx="1.5" fill="#333333"/>
    <circle cx="16" cy="13" r="11" fill="#333333"/>
    <path d="M9.90108 18.0078C8.6788 17.5166 8.08541 16.1267 8.57801 14.9044C8.94143 14.0001 9.81732 13.4081 10.7912 13.4081C11.1347 13.4081 11.474 13.4819 11.7849 13.6267L12.3669 13.0943C10.8778 12.2241 8.96556 12.7252 8.09393 14.2144C7.22371 15.7037 7.72483 17.6159 9.21399 18.4876C10.7032 19.3593 12.6154 18.8567 13.487 17.3675C13.6147 17.1489 13.7155 16.916 13.7865 16.6719L13.0057 16.6846C12.5146 17.907 11.1248 18.5004 9.90108 18.0078Z" />
    <path d="M23.4738 13.6395C22.8876 13.0219 22.0741 12.6713 21.2224 12.667C21.0506 12.667 20.8788 12.6812 20.7099 12.7096L21.0619 13.4194C21.1145 13.4194 21.1684 13.4194 21.2224 13.4194C22.544 13.4294 23.6059 14.5083 23.5959 15.83C23.586 17.1517 22.5071 18.2136 21.1855 18.2037C19.8638 18.1937 18.8019 17.1148 18.8119 15.7931C18.8161 15.2167 19.0291 14.6602 19.411 14.2286L19.0589 13.5259C17.8082 14.7142 17.7571 16.6903 18.9453 17.941C20.1335 19.1917 22.1096 19.2428 23.3603 18.0546C24.6109 16.8664 24.6621 14.8902 23.4738 13.6395Z" />
    <path d="M19.2094 12.288L19.3925 12.9396L19.3897 12.941C19.3954 12.9637 19.4039 12.985 19.4138 13.0049L19.4167 13.0106C19.4181 13.0148 19.4195 13.0191 19.4209 13.0234L20.5651 15.3062V15.3033L20.8916 15.9549C20.9938 16.1324 21.221 16.192 21.3984 16.0898C21.5603 15.9961 21.627 15.7959 21.5532 15.6242L20.091 12.7068H20.0895L19.6651 11.2204L19.5331 10.7562C19.4933 10.6156 19.5558 10.4666 19.685 10.3984C19.8326 10.3204 20.0171 10.3757 20.0952 10.5248C20.1052 10.5432 20.1137 10.5631 20.1194 10.583L20.3791 11.5001C20.4402 11.6307 20.5708 11.7144 20.7156 11.7144H22.1125C22.253 11.7144 22.3822 11.6335 22.4432 11.5072L23.2425 9.87316C23.3319 9.68861 23.2553 9.46714 23.0721 9.3777C23.0111 9.34789 22.9415 9.33511 22.8734 9.34221L21.5162 9.48418L19.932 9.6446L19.729 8.91774C19.543 8.28315 18.9013 7.89559 18.2526 8.02478L17.8622 8.1057C17.6705 8.14119 17.5385 8.31581 17.5541 8.5103C17.5754 8.71331 17.7557 8.86095 17.9587 8.83966C17.9715 8.83824 17.9843 8.83682 17.9971 8.83398L18.4045 8.7488C18.6742 8.69343 18.9411 8.85385 19.0177 9.11791L19.2335 9.84761C18.9681 10.0378 18.8091 10.3431 18.8076 10.6696C18.8091 10.8158 18.8261 10.962 18.8588 11.104L14.9534 14.3294L13.3379 10.0705C13.5551 10.0109 13.7766 9.97538 14.0009 9.96118L14.2209 9.94414C14.4225 9.95408 14.5929 9.79934 14.6042 9.59775C14.6142 9.39616 14.4594 9.2258 14.2578 9.21444C14.2337 9.21302 14.211 9.21444 14.1869 9.21728H13.1065C12.3144 9.21728 12.1795 9.20451 11.7238 9.20451C11.4541 9.20451 11.2866 9.30104 11.2866 9.50405C11.2866 9.92995 11.8417 10.3133 12.3655 10.3133C12.4535 10.3118 12.5401 10.3033 12.6253 10.2849L13.5594 12.7494L10.5413 15.5262C10.3908 15.6639 10.3795 15.8967 10.5172 16.0472C10.5867 16.1225 10.6833 16.1665 10.7869 16.1679H10.7968L14.3458 16.1125C14.3189 16.2048 14.3061 16.2999 14.3061 16.3965C14.3061 16.9672 14.7675 17.43 15.3396 17.43C15.9102 17.43 16.373 16.9672 16.373 16.3965V16.395C16.373 16.2346 16.3347 16.0756 16.2623 15.9322L19.2094 12.288ZM11.7565 15.4098L13.8447 13.4904L14.2706 14.6347L14.5545 15.3672L11.7565 15.4098ZM15.341 16.7585C15.3396 16.7585 15.3396 16.7585 15.3381 16.7585C15.1337 16.7585 14.9676 16.5924 14.9676 16.3879C14.9676 16.1835 15.1337 16.0174 15.3381 16.0174C15.5426 16.0174 15.7087 16.1835 15.7087 16.3879C15.7087 16.5909 15.5454 16.757 15.341 16.7585Z" />
</svg>

<svg xmlns="http://www.w3.org/2000/svg" width="24" height="24" viewBox="0 0 32 32">
 <rect width="3" height="8" x="14.5" y="22" fill="#333" rx="1.5"/>
 <circle cx="16" cy="13" r="11" fill="#333"/>
 <path d="M9.901 18.008a2.385 2.385 0 1 1 1.884-4.381l.582-.533a3.124 3.124 0 1 0 1.42 3.578l-.781.013A2.385 2.385 0 0 1 9.9 18.008M23.474 13.64a3.13 3.13 0 0 0-2.252-.973q-.258 0-.512.043l.352.71h.16a2.391 2.391 0 1 1-.037 4.784 2.391 2.391 0 0 1-1.774-3.975l-.352-.703a3.123 3.123 0 1 0 4.415.114"/>
 <path d="m19.21 12.288.182.652-.002.001a.3.3 0 0 0 .024.064l.003.006.004.012 1.144 2.283v-.003l.327.652a.37.37 0 0 0 .661-.33l-1.462-2.918h-.002l-.424-1.487-.132-.464a.31.31 0 0 1 .152-.358.303.303 0 0 1 .434.185l.26.917c.061.13.192.214.337.214h1.396c.141 0 .27-.08.331-.207l.8-1.634a.371.371 0 0 0-.37-.53l-1.357.141-1.584.16-.203-.726a1.28 1.28 0 0 0-1.476-.893l-.39.08a.38.38 0 0 0-.309.405.37.37 0 0 0 .443.324l.407-.085a.527.527 0 0 1 .614.369l.215.73c-.265.19-.424.495-.425.822q.002.22.05.434l-3.905 3.225-1.615-4.259q.326-.089.663-.109l.22-.017a.366.366 0 1 0-.034-.727h-1.08c-.793 0-.927-.012-1.383-.012-.27 0-.437.096-.437.299 0 .426.555.81 1.079.81q.131-.002.26-.03l.933 2.465-3.018 2.777a.368.368 0 0 0 .246.642h.01l3.549-.055q-.04.138-.04.284a1.033 1.033 0 1 0 2.067 0v-.002c0-.16-.038-.32-.11-.463zm-7.453 3.122 2.088-1.92.426 1.145.284.732zm3.584 1.349h-.003a.37.37 0 1 1 .003 0"/>
</svg>
